X: 29045
T: Neesons Bar
R: waltz
M: 3/4
K: Dmajor
B2 A2 B2|d2 B2 =c2|d2 g2 e2|d4 BA|G3 G E2|D3 G G2|
=c3 A d2|d4 ed|c2 B2 A2|G4 EG|d3 d c2|d6:|
A2 A2 d2|fe dc A2|B3 G B2|{B}A2 G2 G2|d2 e2 e2|d3 d d2|
cB AB cd|{d}f2 B2 B2|c2 A2 A2|G2 D2 G2|dc BA Bd|d6||

